;FLAVOR:Marlin
;TIME:8260
;Filament used: 2.59011m
;Layer height: 0.12
;MINX:80.54
;MINY:90.835
;MINZ:0.144
;MAXX:152.847
;MAXY:143.1
;MAXZ:16.194
;Generated with Cura_SteamEngine 5.2.1
M140 S60
M105
M190 S60
M104 S210
M105
M109 S210
M82 ;absolute extrusion mode
; Ender 3 Custom Start G-code
G92 E0 ; Reset Extruder
G28 ; Home all axes
G1 Z2.0 F3000 ; Move Z Axis up little to prevent scratching of Heat Bed
G1 X0.1 Y20 Z0.3 F5000.0 ; Move to start position
G1 X0.1 Y200.0 Z0.3 F1500.0 E15 ; Draw the first line
G1 X0.4 Y200.0 Z0.3 F5000.0 ; Move to side a little
G1 X0.4 Y20 Z0.3 F1500.0 E30 ; Draw the second line
G92 E0 ; Reset Extruder
G1 Z2.0 F3000 ; Move Z Axis up little to prevent scratching of Heat Bed
G1 X5 Y20 Z0.3 F5000.0 ; Move over to prevent blob squish
G92 E0
G92 E0
G1 F2700 E-5
;LAYER_COUNT:130
;LAYER:-6
M107
G0 F9000 X85.329 Y96.758 Z0.144
;TYPE:SUPPORT-INTERFACE
G1 F2700 E0
G1 F787.5 X84.638 Y97.592 E0.05187
G1 X84.022 Y98.454 E0.10262
G1 X83.468 Y99.362 E0.15356
G1 X82.948 Y100.392 E0.20882
G1 X82.565 Y101.286 E0.2554
G1 X82.224 Y102.295 E0.30641
G1 X81.94 Y103.402 E0.36115
G1 X81.777 Y104.284 E0.40411
G1 X81.652 Y105.359 E0.45594
G1 X81.605 Y106.508 E0.51102
G1 X81.603 Y128.437 E1.5613
G1 X81.611 Y128.946 E1.58568
G1 X81.692 Y130.105 E1.64133
G1 X81.836 Y131.077 E1.68839
G1 X82.081 Y132.197 E1.7433
G1 X82.419 Y133.301 E1.7986
G1 X82.796 Y134.272 E1.84848
G1 X83.189 Y135.109 E1.89277
G1 X83.742 Y136.107 E1.94742
G1 X84.333 Y136.999 E1.99867
G1 X84.992 Y137.854 E2.05037
G1 X85.757 Y138.696 E2.10485
G1 X86.408 Y139.323 E2.14814
G1 X87.28 Y140.056 E2.2027
G1 X88.162 Y140.685 E2.25459
G1 X89.134 Y141.27 E2.30892
G1 X90.001 Y141.717 E2.35564
G1 X90.909 Y142.103 E2.4029
G1 X91.994 Y142.478 E2.45788
G1 X93.106 Y142.764 E2.51287
G1 X94.071 Y142.943 E2.55988
G1 X95.063 Y143.052 E2.60767
G1 X96.191 Y143.098 E2.66174
G1 X96.816 Y143.093 E2.69168
G1 X97.266 Y143.1 E2.71323
G1 X136.235 Y143.099 E4.57964
G1 X136.586 Y143.093 E4.59645
G1 X137.033 Y143.099 E4.61786
G1 X137.629 Y143.092 E4.64641
G1 X138.788 Y143.011 E4.70206
G1 X139.757 Y142.867 E4.74897
G1 X140.802 Y142.639 E4.8002
G1 X141.897 Y142.318 E4.85485
G1 X142.97 Y141.9 E4.91001
G1 X143.791 Y141.514 E4.95346
G1 X144.789 Y140.961 E5.0081
G1 X145.681 Y140.371 E5.05932
G1 X146.523 Y139.721 E5.11027
G1 X147.378 Y138.944 E5.1656
G1 X148.005 Y138.293 E5.20889
G1 X148.736 Y137.423 E5.26332
G1 X149.365 Y136.545 E5.31505
G1 X149.874 Y135.709 E5.36192
G1 X150.397 Y134.705 E5.41614
G1 X150.822 Y133.709 E5.46801
G1 X151.16 Y132.712 E5.51843
G1 X151.446 Y131.597 E5.57356
G1 X151.624 Y130.631 E5.6206
G1 X151.745 Y129.493 E5.67542
G1 X151.782 Y128.492 E5.72339
G1 X151.782 Y106.669 E6.76859
G1 X151.774 Y106.052 E6.79815
G1 X151.693 Y104.892 E6.85384
G1 X151.549 Y103.923 E6.90076
G1 X151.303 Y102.797 E6.95596
G1 X150.998 Y101.779 E7.00686
G1 X150.582 Y100.712 E7.06171
G1 X150.196 Y99.891 E7.10516
G1 X149.681 Y98.961 E7.15608
G1 X149.063 Y98.019 E7.21004
G1 X148.39 Y97.145 E7.26287
G1 X147.626 Y96.304 E7.31729
G1 X146.977 Y95.677 E7.36051
G1 X146.108 Y94.947 E7.41486
G1 X145.23 Y94.318 E7.46659
G1 X144.252 Y93.73 E7.52125
G1 X143.372 Y93.278 E7.56863
G1 X142.387 Y92.86 E7.61988
G1 X141.383 Y92.52 E7.67065
G1 X140.279 Y92.236 E7.72524
G1 X139.397 Y92.073 E7.7682
G1 X138.323 Y91.948 E7.81999
G1 X137.193 Y91.902 E7.87415
G1 X136.563 Y91.907 E7.90433
G1 X136.113 Y91.9 E7.92588
G1 X97.144 Y91.901 E9.79229
G1 X96.741 Y91.907 E9.81159
G1 X96.345 Y91.901 E9.83056
G1 X95.757 Y91.908 E9.85872
G1 X94.603 Y91.989 E9.91413
G1 X93.549 Y92.144 E9.96515
G1 X92.424 Y92.401 E10.02042
G1 X91.495 Y92.68 E10.06688
G1 X90.484 Y93.067 E10.11873
G1 X89.45 Y93.56 E10.17359
G1 X88.663 Y94.003 E10.21685
G1 X87.77 Y94.587 E10.26795
G1 X86.856 Y95.288 E10.32312
G1 X86.065 Y95.996 E10.37396
G1 X85.329 Y96.758 E10.4247
G0 F9000 X85.667 Y96.981
G1 F787.5 X131.385 Y142.699 E13.52133
G0 F9000 X129.122 Y142.699
G1 F787.5 X84.664 Y98.241 E16.53261
G0 F9000 X83.783 Y99.622
G1 F787.5 X126.859 Y142.699 E19.45032
G0 F9000 X124.597 Y142.699
G1 F787.5 X83.054 Y101.156 E22.26416
G0 F9000 X82.491 Y102.856
G1 F787.5 X122.334 Y142.699 E24.96285
G0 F9000 X120.071 Y142.699
G1 F787.5 X82.124 Y104.752 E27.53312
G0 F9000 X82.004 Y106.894
G1 F787.5 X117.808 Y142.699 E29.95828
G0 F9000 X115.546 Y142.699
G1 F787.5 X82.004 Y109.157 E32.23018
G0 F9000 X82.004 Y111.42
G1 F787.5 X113.283 Y142.699 E34.34881
G0 F9000 X111.02 Y142.699
G1 F787.5 X82.004 Y113.682 E36.31419
G0 F9000 X82.003 Y115.945
G1 F787.5 X108.757 Y142.699 E38.12632
G0 F9000 X106.495 Y142.699
G1 F787.5 X82.003 Y118.207 E39.78524
G0 F9000 X82.003 Y120.47
G1 F787.5 X104.232 Y142.699 E41.29088
G0 F9000 X101.969 Y142.699
G1 F787.5 X82.003 Y122.732 E42.64328
G0 F9000 X82.003 Y124.995
G1 F787.5 X99.707 Y142.699 E43.84243
G0 F9000 X97.444 Y142.699
G1 F787.5 X82.003 Y127.258 E44.88829
G0 F9000 X82.055 Y129.573
G1 F787.5 X95.135 Y142.653 E45.77424
G0 F9000 X92.384 Y142.165
G1 F787.5 X82.534 Y132.315 E46.44142
G1 F2700 E41.44142
G0 F9000 X81.347 Y133.458
G0 X81.82 Y134.7
G0 X81.962 Y134.999
G0 X82.884 Y136.74
G0 X84.533 Y136.576
G1 F2700 E46.44142
G1 F787.5 X88.117 Y140.16 E46.68417
G1 F2700 E41.68417
G0 F9000 X87.264 Y141.354
G0 X85.689 Y140.108
G0 X84.235 Y138.603
G0 X83.404 Y137.523
G0 X82.325 Y135.757
G0 X81.753 Y134.538
G0 X81.082 Y132.573
G0 X80.786 Y131.258
G0 X80.557 Y129.187
G0 X80.578 Y105.443
G0 X80.725 Y104.116
G0 X81.179 Y102.082
G0 X81.611 Y100.812
G0 X82.49 Y98.938
G0 X83.209 Y97.762
G0 X84.226 Y96.442
G0 X85.414 Y95.149
G0 X86.812 Y95.863
G1 F2700 E46.68417
G1 F787.5 X133.648 Y142.699 E49.85652
G0 F9000 X135.91 Y142.699
G1 F787.5 X88.077 Y94.865 E53.09644
G0 F9000 X89.477 Y94.002
G1 F787.5 X138.129 Y142.655 E56.39183
G0 F9000 X140.115 Y142.378
G1 F787.5 X91.025 Y93.287 E59.71688
G0 F9000 X92.739 Y92.739
G1 F787.5 X141.89 Y141.89 E63.04604
G0 F9000 X143.479 Y141.217
G1 F787.5 X94.649 Y92.387 E66.35345
G0 F9000 X96.832 Y92.307
G1 F787.5 X144.919 Y140.393 E69.6105
G0 F9000 X146.229 Y139.441
G1 F787.5 X99.088 Y92.3 E72.80351
G0 F9000 X101.351 Y92.3
G1 F787.5 X147.397 Y138.346 E75.92235
G0 F9000 X148.449 Y137.136
G1 F787.5 X103.613 Y92.3 E78.95924
G0 F9000 X105.876 Y92.3
G1 F787.5 X149.36 Y135.783 E81.90451
G0 F9000 X150.135 Y134.296
G1 F787.5 X108.139 Y92.3 E84.74904
G0 F9000 X110.401 Y92.3
G1 F787.5 X150.756 Y132.654 E87.48238
G0 F9000 X151.182 Y130.818
G1 F787.5 X112.664 Y92.3 E90.09132
G0 F9000 X114.927 Y92.3
G1 F787.5 X151.371 Y128.744 E92.55979
G0 F9000 X151.38 Y126.49
G1 F787.5 X117.19 Y92.3 E94.87559
G0 F9000 X119.452 Y92.3
G1 F787.5 X151.38 Y124.228 E97.03817
G0 F9000 X151.38 Y121.965
G1 F787.5 X121.715 Y92.3 E99.04748
G0 F9000 X123.978 Y92.3
G1 F787.5 X151.38 Y119.702 E100.9035
G0 F9000 X151.38 Y117.439
G1 F787.5 X126.241 Y92.3 E102.60625
G0 F9000 X128.503 Y92.3
G1 F787.5 X151.38 Y115.177 E104.15578
G0 F9000 X151.38 Y112.914
G1 F787.5 X130.766 Y92.3 E105.55203
G0 F9000 X133.029 Y92.3
G1 F787.5 X151.38 Y110.651 E106.795
G0 F9000 X151.38 Y108.388
G1 F787.5 X135.292 Y92.3 E107.88469
G0 F9000 X137.573 Y92.318
G1 F787.5 X151.374 Y106.119 E108.81948
G0 F9000 X151.054 Y103.537
G1 F787.5 X140.133 Y92.616 E109.55919
G0 F9000 X143.652 Y93.871
G1 F787.5 X149.822 Y100.042 E109.97714
G1 F2700 E104.97714
G0 F300 X149.822 Y100.042 Z0.324
G0 F9000 X151.15 Y99.417
G0 X151.969 Y101.341
G0 X152.355 Y102.622
G0 X152.737 Y104.68
G0 X152.847 Y106.553
G0 X152.808 Y129.557
G0 X152.661 Y130.883
G0 X152.209 Y132.91
G0 X151.769 Y134.2
G0 X150.887 Y136.08
G0 X150.178 Y137.239
G0 X148.907 Y138.883
G0 X148.646 Y139.153
G0 X147.302 Y140.451
G0 X146.323 Y139.362
;TIME_ELAPSED:187.737357
;LAYER:-5
;TYPE:SUPPORT
G1 F2700 E109.97714
G1 F787.5 X147.104 Y138.653 E110.04029
G1 X147.699 Y138.035 E110.09165
G1 X148.035 Y137.635 E110.12293
G1 X146.253 Y139.418 E110.27384
G1 X145.456 Y140.038 E110.3343
G1 X144.651 Y140.572 E110.39213
G1 X143.682 Y141.122 E110.45884
G1 X142.819 Y141.529 E110.51596
G1 X142.668 Y141.588 E110.52567
G1 X150.265 Y133.991 E111.16888
G1 X150.445 Y133.568 E111.1964
G1 X150.786 Y132.564 E111.25988
G1 X150.96 Y131.881 E111.30207
G1 X140.556 Y142.286 E112.18299
G1 X139.83 Y142.448 E112.22752
G1 X138.826 Y142.601 E112.28832
G1 X151.271 Y130.157 E113.34195
G1 X151.344 Y129.464 E113.38367
G1 X151.374 Y128.639 E113.4331
G1 X137.318 Y142.695 E114.62317
G1 X137.043 Y142.699 E114.63963
G1 X136.579 Y142.692 E114.66742
G1 X135.9 Y142.699 E114.70807
G1 X151.38 Y127.219 E116.01871
G1 X151.38 Y125.804 E116.10342
G1 X134.486 Y142.699 E117.53382
G1 X133.071 Y142.699 E117.61853
G1 X151.38 Y124.39 E119.16869
G1 X151.38 Y122.976 E119.25334
G1 X131.657 Y142.699 E120.92322
G1 X130.243 Y142.699 E121.00787
G1 X151.38 Y121.562 E122.79747
G1 X151.38 Y120.148 E122.88212
G1 X128.829 Y142.699 E124.79144
G1 X127.414 Y142.699 E124.87615
G1 X151.38 Y118.733 E126.90527
G1 X151.38 Y117.319 E126.98992
G1 X126 Y142.699 E129.13876
G1 X124.586 Y142.699 E129.22341
G1 X151.38 Y115.905 E131.49196
G1 X151.38 Y114.491 E131.57662
G1 X123.172 Y142.699 E133.96489
G1 X121.758 Y142.699 E134.04954
G1 X151.38 Y113.076 E136.55758
G1 X151.38 Y111.662 E136.64223
G1 X120.343 Y142.699 E139.27002
G1 X118.929 Y142.699 E139.35468
G1 X151.38 Y110.248 E142.10219
G1 X151.38 Y108.834 E142.18684
G1 X117.515 Y142.699 E145.05407
G1 X116.101 Y142.699 E145.13873
G1 X151.38 Y107.42 E148.12568
G1 X151.38 Y106.556 E148.1774
G1 X151.369 Y106.017 E148.20968
G1 X114.687 Y142.699 E151.31541
G1 X113.272 Y142.699 E151.40013
G1 X151.26 Y104.712 E154.61639
G1 X151.128 Y103.842 E154.66908
G1 X151.052 Y103.505 E154.68976
G1 X111.858 Y142.699 E158.00818
G1 X110.444 Y142.699 E158.09283
G1 X150.758 Y102.385 E161.50607
G1 X150.622 Y101.92 E161.53508
G1 X150.394 Y101.335 E161.57267
G1 X109.03 Y142.699 E165.07481
G1 X107.615 Y142.699 E165.15953
G1 X149.968 Y100.347 E168.74536
G1 X149.806 Y100.003 E168.76813
G1 X149.477 Y99.424 E168.808
G1 X106.201 Y142.699 E172.47198
G1 X104.787 Y142.699 E172.55663
G1 X148.936 Y98.55 E176.29458
G1 X148.726 Y98.231 E176.31744
G1 X148.337 Y97.735 E176.35518
G1 X103.373 Y142.699 E180.16212
G1 X101.959 Y142.699 E180.24678
G1 X147.689 Y96.969 E184.11857
G1 X147.334 Y96.576 E184.15028
G1 X146.995 Y96.249 E184.17848
G1 X100.544 Y142.699 E188.11128
G1 X99.13 Y142.699 E188.19593
G1 X146.245 Y95.585 E192.18495
G1 X145.924 Y95.315 E192.21006
G1 X145.446 Y94.969 E192.24539
G1 X97.716 Y142.699 E196.28652
G1 X96.809 Y142.692 E196.34082
G1 X96.304 Y142.697 E196.37106
G1 X144.598 Y94.403 E200.45994
G1 X144.075 Y94.088 E200.49649
G1 X143.694 Y93.893 E200.52212
G1 X94.951 Y142.636 E204.64902
G1 X94.043 Y142.531 E204.70374
G1 X93.704 Y142.469 E204.72437
G1 X142.73 Y93.442 E208.87527
G1 X142.176 Y93.21 E208.91123
G1 X141.708 Y93.051 E208.94082
G1 X92.549 Y142.209 E213.1029
G1 X92.122 Y142.099 E213.1293
G1 X91.467 Y141.877 E213.1707
G1 X140.612 Y92.732 E217.33163
G1 X140.203 Y92.628 E217.3569
G1 X139.444 Y92.486 E217.40313
G1 X90.456 Y141.474 E221.55077
G1 X90.182 Y141.359 E221.56856
G1 X89.504 Y141.011 E221.61419
G1 X138.175 Y92.341 E225.73495
G1 X137.172 Y92.3 E225.79504
G1 X136.798 Y92.304 E225.81744
G1 X88.612 Y140.49 E229.89717
G1 X88.372 Y140.345 E229.91396
G1 X87.775 Y139.913 E229.95808
G1 X135.388 Y92.3 E233.9893
G1 X133.974 Y92.3 E234.07396
G1 X86.987 Y139.286 E238.05214
G1 X86.665 Y139.015 E238.07734
G1 X86.247 Y138.612 E238.1121
G1 X132.559 Y92.3 E242.03317
G1 X131.145 Y92.3 E242.11782
G1 X85.562 Y137.883 E245.97718
G1 X85.34 Y137.64 E245.99688
G1 X84.924 Y137.107 E246.03736
G1 X129.731 Y92.3 E249.83101
G1 X128.317 Y92.3 E249.91567
G1 X84.338 Y136.279 E253.63921
G1 X84.123 Y135.96 E253.66224
G1 X83.805 Y135.397 E253.70095
G1 X126.903 Y92.3 E257.34987
G1 X125.488 Y92.3 E257.43458
G1 X83.326 Y134.462 E261.00429
G1 X83.157 Y134.102 E261.0281
G1 X82.911 Y133.462 E261.06915
G1 X124.074 Y92.3 E264.55423
G1 X122.66 Y92.3 E264.63889
G1 X82.562 Y132.397 E268.0338
G1 X82.445 Y132.003 E268.05841
G1 X82.281 Y131.265 E268.10367
G1 X121.246 Y92.3 E271.4027
G1 X119.831 Y92.3 E271.48741
G1 X82.088 Y130.043 E274.68298
G1 X81.996 Y128.721 E274.76231
G1 X118.417 Y92.3 E277.84595
G1 X117.003 Y92.3 E277.9306
G1 X82.003 Y127.3 E280.89393
G1 X82.003 Y125.886 E280.97859
G1 X115.589 Y92.3 E283.82219
G1 X114.175 Y92.3 E283.90685
G1 X82.003 Y124.472 E286.63074
G1 X82.003 Y123.057 E286.71545
G1 X112.76 Y92.3 E289.31954
G1 X111.346 Y92.3 E289.40419
G1 X82.003 Y121.643 E291.88856
G1 X82.003 Y120.229 E291.97321
G1 X109.932 Y92.3 E294.33786
G1 X108.518 Y92.3 E294.42252
G1 X82.003 Y118.815 E296.66745
G1 X82.003 Y117.4 E296.75216
G1 X107.104 Y92.3 E298.87733
G1 X105.689 Y92.3 E298.96205
G1 X82.003 Y115.986 E300.96746
G1 X82.003 Y114.571 E301.05217
G1 X104.275 Y92.3 E302.93782
G1 X102.861 Y92.3 E303.02247
G1 X82.003 Y113.157 E304.78841
G1 X82.003 Y111.743 E304.87306
G1 X101.447 Y92.3 E306.51927
G1 X100.032 Y92.3 E306.60399
G1 X82.003 Y110.329 E308.13044
G1 X82.003 Y108.914 E308.21515
G1 X98.618 Y92.3 E309.62184
G1 X97.203 Y92.3 E309.70656
G1 X82.003 Y107.5 E310.99349
G1 X82.003 Y106.527 E311.05174
G1 X82.02 Y106.069 E311.07918
G1 X95.783 Y92.307 E312.2444
G1 X94.642 Y92.387 E312.31288
G1 X94.228 Y92.447 E312.33792
G1 X82.136 Y104.539 E313.36171
G1 X82.329 Y103.483 E313.42598
G1 X82.52 Y102.741 E313.47185
G1 X92.445 Y92.816 E314.31216
G1 X91.631 Y93.056 E314.36297
G1 X90.627 Y93.44 E314.42732
G1 X90.207 Y93.64 E314.45517
G1 X83.327 Y100.52 E315.03768
G1 X83.862 Y99.483 E315.10754
G1 X84.358 Y98.67 E315.16455
G1 X84.903 Y97.906 E315.22074
G1 X85.579 Y97.08 E315.28464
G1 X86.332 Y96.292 E315.34989
G1 X87.071 Y95.629 E315.40933
G1 X87.878 Y94.999 E315.47062
G1 X88.747 Y94.418 E315.5332
G1 X89.651 Y93.905 E315.59543
G1 F2700 E310.59543
G0 F300 X89.651 Y93.905 Z0.444
G0 F9000 X88.933 Y92.629
G0 X87.16 Y93.713
G0 X86.109 Y94.525
G0 X84.606 Y95.975
G0 X83.735 Y97.024
G0 X82.599 Y98.742
G0 X81.979 Y99.951
G0 X81.235 Y101.895
G0 X80.898 Y103.183
G0 X80.591 Y105.269
G0 X80.54 Y106.488
G0 X80.557 Y129.187
G0 X80.786 Y131.258
G0 X81.082 Y132.573
G0 X81.753 Y134.538
G0 X82.325 Y135.757
G0 X83.404 Y137.523
G0 X84.707 Y136.829
;TIME_ELAPSED:451.358726
;LAYER:-4
;TYPE:SUPPORT-INTERFACE
G1 F2700 E315.59543
G1 F1050 X85.34 Y137.64 E315.61596
G1 X86.049 Y138.422 E315.63703
G1 X86.665 Y139.015 E315.65409
G1 X87.459 Y139.683 E315.6748
G1 X88.116 Y140.159 E315.69099
G1 X84.545 Y136.588 E315.79177
G1 X84.123 Y135.96 E315.80687
G1 X83.652 Y135.13 E315.82591
G1 X89.564 Y141.041 E315.99275
G1 X90.182 Y141.359 E316.00662
G1 X90.637 Y141.549 E316.01646
G1 X83.135 Y134.047 E316.22818
G1 X82.782 Y133.128 E316.24783
G1 X91.563 Y141.909 E316.49565
G1 X92.122 Y142.099 E316.50743
G1 X92.387 Y142.167 E316.51289
G1 X82.537 Y132.318 E316.79086
G1 X82.445 Y132.003 E316.79741
G1 X82.346 Y131.561 E316.80645
G1 X93.148 Y142.363 E317.11131
G1 X93.845 Y142.494 E317.12546
G1 X82.21 Y130.859 E317.45382
G1 X82.108 Y130.191 E317.46731
G1 X94.501 Y142.584 E317.81707
G1 X95.137 Y142.655 E317.82984
G1 X82.055 Y129.573 E318.19904
G1 X82.013 Y128.964 E318.21122
G1 X95.726 Y142.678 E318.59825
G1 X96.316 Y142.702 E318.61003
G1 X82.002 Y128.388 E319.014
G1 X82.002 Y127.822 E319.0253
G1 X96.872 Y142.693 E319.44497
G1 X97.444 Y142.699 E319.45639
G1 X82.002 Y127.257 E319.8922
G1 X82.002 Y126.691 E319.90349
G1 X98.009 Y142.699 E320.35526
G1 X98.575 Y142.699 E320.36655
G1 X82.002 Y126.125 E320.83429
G1 X82.002 Y125.56 E320.84557
G1 X99.141 Y142.699 E321.32927
G1 X99.707 Y142.699 E321.34056
G1 X82.002 Y124.994 E321.84024
G1 X82.002 Y124.428 E321.85153
G1 X100.272 Y142.699 E322.36716
G1 X100.838 Y142.699 E322.37846
G1 X82.002 Y123.863 E322.91005
G1 X82.002 Y123.297 E322.92135
G1 X101.404 Y142.699 E323.46891
G1 X101.969 Y142.699 E323.48019
G1 X82.002 Y122.731 E324.04371
G1 X82.002 Y122.166 E324.05499
G1 X102.535 Y142.699 E324.63448
G1 X103.101 Y142.699 E324.64577
G1 X82.002 Y121.6 E325.24123
G1 X82.002 Y121.034 E325.25252
G1 X103.666 Y142.699 E325.86394
G1 X104.232 Y142.699 E325.87524
G1 X82.002 Y120.469 E326.50262
G1 X82.002 Y119.903 E326.51391
G1 X104.798 Y142.699 E327.15727
G1 X105.363 Y142.699 E327.16854
G1 X82.002 Y119.337 E327.82785
G1 X82.002 Y118.772 E327.83913
G1 X105.929 Y142.699 E328.5144
